!!!OTL: Buffalo Gals
!!!COM: Hodges, John
!!!ODT: 1844
!!!YOR: The Folksong Fake Book
!!!YOY: 2000
!!!AST: Folk song
!!!YEC: Brian Luke, 2001
**kern	**harm
*k[f#c#]	*k[f#c#]
*M2/4	*M2/4
*D:	*D:
*>A	*A>
=1	=1
16d	I
16d	.
8d	.
8f#	.
16a	.
16a	.
=2	=2
16b	.
8a	.
16a	.
8f#	.
16f#	.
16f#	.
=3	=3
16a	V7
8g	.
16g	.
8e	.
16e	.
16e	.
=4	=4
16b	IV
8a	I
16a	.
4f#	.
*>A'	*>A'
=5	=5
16d	I
16d	.
8d	.
8f#	.
16a	.
16a	.
=6	=6
16b	IV
8a	I
16a	.
8f#	.
8f#	.
=7	=7
8a	V7
16g	.
16g	.
8f#	.
16e	.
16e	.
=8	=8
4d	I;
8r	.
*>B	*>B
8a	.
=9	=9
8dd	I
16cc#	.
16cc#	.
8b	.
16a	.
16a	.
=10	=10
8b	.
16a	.
16a	.
16f#	.
16f#	.
16f#	.
16f#	.
=11	=11
8a	V7
16g	.
16g	.
16e	.
16e	.
16a	.
16a	.
=12	=12
8b	IV
16a	I
16a	.
16f#	.
16f#	.
*>B'	*>B'
8a	.
=13	=13
8dd	I
16cc#	.
16cc#	.
8b	.
16a	.
16a	.
=14	=14
8b	.
16a	.
16a	.
16f#	.
16f#	.
16f#	.
16f#	.
=15	=15
8a	V7
16a	.
16a	.
8g	.
16e	.
16e	.
=16	=16
4d	I;
4r	.
*-	*-
